scalable/places/user-bookmarks.svg

<?xml version="1.0" encoding="UTF-8" standalone="no"?>
<svg
   height="128px"
   viewBox="0 0 128 128"
   width="128px"
   version="1.1"
   id="svg9"
   sodipodi:docname="user-bookmarks.svg"
   xml:space="preserve"
   inkscape:version="1.3.2 (091e20ef0f, 2023-11-25)"
   xmlns:inkscape="http://www.inkscape.org/namespaces/inkscape"
   xmlns:sodipodi="http://sodipodi.sourceforge.net/DTD/sodipodi-0.dtd"
   xmlns="http://www.w3.org/2000/svg"
   xmlns:svg="http://www.w3.org/2000/svg"><defs
     id="defs9" /><sodipodi:namedview
     id="namedview9"
     pagecolor="#ffffff"
     bordercolor="#000000"
     borderopacity="0.25"
     inkscape:showpageshadow="2"
     inkscape:pageopacity="0.0"
     inkscape:pagecheckerboard="0"
     inkscape:deskcolor="#d1d1d1"
     inkscape:zoom="3.5"
     inkscape:cx="38.285714"
     inkscape:cy="89.142857"
     inkscape:window-width="1920"
     inkscape:window-height="1043"
     inkscape:window-x="0"
     inkscape:window-y="0"
     inkscape:window-maximized="1"
     inkscape:current-layer="svg9" /><linearGradient
     id="a"
     gradientTransform="matrix(0.45451 0 0 0.455522 -1210.292114 616.172607)"
     gradientUnits="userSpaceOnUse"
     x1="2689.251953"
     x2="2918.069824"
     y1="-1106.802979"
     y2="-1106.802979"><stop
       offset="0"
       stop-color="#62a0ea"
       id="stop1" /><stop
       offset="0.0576991"
       stop-color="#afd4ff"
       id="stop2" /><stop
       offset="0.122204"
       stop-color="#62a0ea"
       id="stop3" /><stop
       offset="0.873306"
       stop-color="#62a0ea"
       id="stop4" /><stop
       offset="0.955997"
       stop-color="#c0d5ea"
       id="stop5" /><stop
       offset="1"
       stop-color="#62a0ea"
       id="stop6" /></linearGradient><path
     id="path6"
     style="fill:#ac939d;fill-opacity:1"
     d="M 21.976562 12 C 16.449225 12 12 16.460944 12 22 L 12 54 L 12 108.03125 C 12 113.57421 16.449225 118.03125 21.976562 118.03125 L 106.01953 118.03125 C 111.55078 118.03125 116 113.57421 116 108.03125 L 116 46 L 116 35.945312 C 116 29.316413 110.64062 23.945312 104.02734 23.945312 L 58 23.945312 C 55.546877 23.945312 53.304687 22.558592 52.203125 20.363281 L 50.699219 17.371094 C 49.04297 14.078128 45.679684 12 42 12 L 21.976562 12 z " /><path
     d="m 65.976562 32 c -2.746093 0 -5.226562 1.101562 -7.027343 2.890625 c -2.273438 2.253906 -5.382813 5.109375 -8.632813 5.109375 h -28.339844 c -5.527343 0 -9.976562 4.460938 -9.976562 10 v 55.976562 c 0 5.539063 4.449219 10 9.976562 10 h 84.042969 c 5.53125 0 9.980469 -4.460937 9.980469 -10 v -63.976562 c 0 -5.539062 -4.449219 -10 -9.980469 -10 z m 0 0"
     fill="#a4caee"
     id="path8"
     style="fill:#e3dbde;fill-opacity:1" /><path
     d="m 57.9375 64 c -2.664062 0 -4.546875 1.632812 -5.289062 3.109375 c -0.742188 1.476563 -0.710938 2.890625 -0.710938 2.890625 l 0.0625 24.945312 l 11.992188 -4.804687 l 12.007812 4.804687 l -0.0625 -24.953124 c 0 -0.007813 0.023438 -1.414063 -0.710938 -2.882813 c -0.742187 -1.476563 -2.625 -3.109375 -5.289062 -3.109375 z m 0 4 h 12 c 1.390625 0.023438 2.007812 0.734375 2 2 l 0.046875 19.039062 l -7.992187 -3.203124 l -8.007813 3.203124 l -0.046875 -19.046874 c -0.015625 -1.296876 0.796875 -1.992188 2 -1.992188 z m 0 0"
     fill="#438de6"
     id="path9"
     style="fill:#ac939d;fill-opacity:1" /></svg>

<svg xmlns="http://www.w3.org/2000/svg" xml:space="preserve" width="128" height="128" viewBox="0 0 128 128">
    <path d="M21.977 12C16.449 12 12 16.46 12 22v86.031c0 5.543 4.45 10 9.977 10h84.043a9.965 9.965 0 0 0 9.98-10V35.945c0-6.629-5.36-12-11.973-12H58a6.49 6.49 0 0 1-5.797-3.582L50.7 17.371A9.74 9.74 0 0 0 42 12z" style="fill:#ac939d;fill-opacity:1"/>
    <path fill="#a4caee" d="M65.977 32a9.93 9.93 0 0 0-7.028 2.89C56.676 37.146 53.566 40 50.316 40h-28.34C16.45 40 12 44.46 12 50v55.977c0 5.539 4.45 10 9.977 10h84.043c5.53 0 9.98-4.461 9.98-10V42c0-5.54-4.45-10-9.98-10zm0 0" style="fill:#e3dbde;fill-opacity:1"/>
    <path fill="#438de6" d="M57.938 64c-2.665 0-4.547 1.633-5.29 3.11-.742 1.476-.71 2.89-.71 2.89L52 94.945l11.992-4.804L76 94.945l-.062-24.953c0-.008.023-1.414-.711-2.883-.743-1.476-2.625-3.109-5.29-3.109zm0 4h12c1.39.023 2.007.734 2 2l.046 19.04-7.992-3.204-8.008 3.203-.047-19.047c-.015-1.297.797-1.992 2-1.992m0 0" style="fill:#ac939d;fill-opacity:1"/>
</svg>
